X: 21081
T: MY MOTHER BIDS ME BIND MY HAIR
C: Haydn
%R: waltz
B: "Edinburgh Repository of Music" v.2 p.108
F: http://digital.nls.uk/special-collections-of-printed-music/pageturner.cfm?id=87776133
Z: 2015 John Chambers <jc:trillian.mit.edu>
M: 6/8
L: 1/16
K: C
"_P."G2 |\
(c3ege) (c4B2) | (B2A2)A2 (A2G2)c2 |\
c2(Bcde) g2f2e2 | d3ed>e dcBAGF |\
(EG)(cege) (c4B2) | (B2A2)A2 (A2G2)c2 |
{cd}e4d2 {d}c2B2A2 | Gd'(c'bag) ("_>"g2^f2)e2 |\
d4g2 ("_>"g2^f2)e2 | (d4c2) ({Bd}c2B2A2) |\
d4(cA) G4(AB) | (GG^FG.A.B) (cde=f)(g2 |\
^f2)z2(=f2 e2)z2(_e2 |
d2)z2(c2 B2)z2.G2 |\
c4d2 e4^f2 | (gb)(d'bd'b) gbd'bd'b |\
g4z2 z4(c2 | B2)z2(c2 B2)z2(c2 |\
d2)z2(e2 {de}Hf4)d2 | g4(fd) c4(de) |
.c.E.F.G.A.B .c.d.e.f.g2 | f2z2(e2 d2)z2(c2 |\
B2)z2c2 {g2^f2=f2efg}Hf4d2 | g3(b/a/ g/f/e/d/c4) {dcBc}d>e |\
c4z2 ("_>"g4B2) | c2z2(e2 c4) |]

%%sep 2 1 500
%%sep 1 1 500

